X: 44
T: Serce mi każe śpiewać panu swemu,
C: Mikołaj Gomółka
%%abc-version 2.0
%%abcx-abcm2ps-target-version 5.9.1 (29 Sep 2008)
%%abc-creator hum2abc beta
%%abcx-conversion-date 2021/10/04 07:59:08
%%humdrum-veritas 2198159898
%%humdrum-veritas-data 3501262218
%%linebreak <none>
%%barnumbers 0
L: 1/4
M: C
N: Derived from pl-wn--sd-xvi-qu-273--045_gomolka-mikolaj--serce-mi-kaze-spiewac-panu-swemu.krn
%%staves [1 2 3 4]
V: 1 clef=treble
V: 2
V: 3 clef=alto
V: 4
K: F
[V:1] c2B2A2zf [I:setbarnb 3][|] 
[V:2] F2DEF2zA [|] 
[V:3] A,2B,2C2zC [|] 
[V:4] F,2B,,2F,2zF, [|] 
[V:1] e2d2c2G2 [|] 
[V:2] G2G2A2C2 [|] 
[V:3] C2DEF2E2 [|] 
[V:4] C2B,2A,2G,2 [|] 
[V:1] ABc4B2 [|] 
[V:2] F2F2F4 [|] 
[V:3] D2C2D4 [|] 
[V:4] F,2>E,2D,4 [|] 
[V:1] c2zcc2c2 [|] 
[V:2] G2zGA2A2 [|] 
[V:3] E2zEF2F3 [|] 
[V:4] C,4F,2F,2 [|] 
[V:1] d2B2c3B [|] 
[V:2] A2BAG2AG [|] 
[V:3] ED2EDC2 [|] 
[V:4] F,2G,2C,2F,4 [|] 
[V:1] A4G2c4 [|] 
[V:2] F4E2G2 [|] 
[V:3] C2A,B,C2E2 [|] 
[V:4] F,,2C,2C,2 [|] 
[V:1] c2c2f2 [|] 
[V:2] A4G2F2 [|] 
[V:3] F4E2DC [|] 
[V:4] F,4C,2D,2 [|] 
[V:1] d2d2e3d [|] 
[V:2] B2>A2G4 [|] 
[V:3] D2GFEDE2 [|] 
[V:4] G,2G,2C,4 [|] 
[V:1] c2c2d3c [|] 
[V:2] A4B4 [|] 
[V:3] F2>E2D2D2 [|] 
[V:4] F,2F,2B,3A, [|] 
[V:1] def4e2 [|] 
[V:2] B2c2c3B [|] 
[V:3] G2A2G4 [|] 
[V:4] G,2F,2C4 [|] 
[V:1] f2f2>e2dc [|] 
[V:2] A2A2B2F2 [|] 
[V:3] F2>E2D4 [|] 
[V:4] F,2F,2B,3A, [|] 
[V:1] dcBAG2c4 [|] 
[V:2] BAG2G2G2 [|] 
[V:3] D4E2E2 [|] 
[V:4] G,2>F,2E,D,C,2 [|] 
[V:1] B2c2c4 [|] 
[V:2] G2>F2E2A3 [|] 
[V:3] D4C2C4 [|] 
[V:4] G,4C,2F,4 [|] 
[V:1] A2d2d2 [|] 
[V:2] GFEDEF4 [|] 
[V:3] C2B,3A, [|] 
[V:4] F,2B,,2B,,2 [|] 
[V:1] c2>B2!fermata!A4 [|] 
[V:2] E2F4 [|] 
[V:3] G,F,G,2!fermata!A,4 [|] 
[V:4] C,4!fermata!F,4 [|] 


